icons/increase-font.svg

<svg width="24" height="24" viewBox="0 0 24 24" fill="none" xmlns="http://www.w3.org/2000/svg">
<path fill-rule="evenodd" clip-rule="evenodd" d="M17 11V9C17 8.333 17.333 8 18 8C18.667 8 19 8.333 19 9V11H21C21.667 11.002 22 11.336 22 12.002C22 12.667 21.667 13 21 13H19V15C18.998 15.667 18.664 16 17.998 16C17.333 16 17 15.667 17 15V13H15C14.333 13 14 12.667 14 12C14 11.333 14.333 11 15 11H17ZM9.11199 15H4.91299C4.59299 16.35 4.32099 17.509 4.17899 18.116C4.11099 18.405 3.74899 19.166 2.79099 18.968C2.15199 18.836 1.90099 18.414 2.03499 17.702L4.92499 7.164C5.25899 5.721 5.95499 5 7.01299 5C8.07199 5 8.76799 5.721 9.10099 7.164L11.98 17.705C12.078 18.448 11.813 18.869 11.184 18.968C10.241 19.115 9.92799 18.405 9.85899 18.116C9.61201 17.0769 9.36301 16.0382 9.11199 15ZM8.62399 13C7.89699 10.038 7.12399 7 7.01399 7C6.87699 7 6.10999 10.038 5.39299 13H8.62399Z" fill="#3A3A47"/>
</svg>

<svg xmlns="http://www.w3.org/2000/svg" width="24" height="24" viewBox="0 0 24 24">
    <path fill="#3A3A47" fill-rule="evenodd" d="M7.013 5c1.059 0 1.755.721 2.088 2.164l2.879 10.541c.098.743-.167 1.164-.796 1.263-.943.147-1.256-.563-1.325-.852-.144-.607-.42-1.766-.747-3.115H4.913c-.32 1.348-.592 2.508-.734 3.115-.068.289-.43 1.05-1.388.852-.639-.132-.89-.554-.756-1.266l2.89-10.538C5.259 5.721 5.955 5 7.013 5zM18 8c.667 0 1 .333 1 1v2h2c.667.002 1 .336 1 1.002 0 .665-.333.998-1 .998h-2v2c-.002.667-.336 1-1.002 1-.665 0-.998-.333-.998-1l-.001-2H15c-.667 0-1-.333-1-1s.333-1 1-1h2V9c0-.667.333-1 1-1zM7.013 7c-.136 0-.904 3.038-1.62 6h3.231c-.727-2.962-1.5-6-1.61-6z"/>
</svg>
